X:1
T:Jerusalem (Grosvenor), CM
T:Jerusalem (Grosvenor), CM
T:Simeon Grosvenor, 1842
T:Public Domain Courtesy of the Cyber Hymnal™
C:Simeon Grosvenor, 1842
Z:Public Domain
Z:Courtesy of the Cyber Hymnal™
%%score ( 1 2 ) ( 3 4 )
L:1/8
Q:1/4=115
M:3/4
K:A
V:1 treble 
V:2 treble 
V:3 bass 
V:4 bass 
V:1
 [CE]2 | [EA]4 [FA]2 | [GB]4 E2 | ([Ec]2 [Fd]2) [Ec]2 | ([Ec]2 [DB]2) [CA]2 | %5
 ([DF]3 [Fd]) ([Ec][FB]) | [EA]4 [DG]2 | [CA]4 [B,E]2 | B2 A2 [EB]2 | [Ec]4 [Ec]2 | (c2 B2) [Ec]2 | %11
 (e2 d2) [Ec]2 | ([DF]3 [Fd]) ([Ec][FB]) | [EA]4 [DG]2 | [CA]4 |] %15
V:2
 x2 | x6 | x4 E2 | x6 | x6 | x6 | x6 | x6 | E4 x2 | x6 | E4 x2 | E4 x2 | x6 | x6 | x4 |] %15
V:3
 A,2 | [A,,C]4 (C^D) | [E,E]4 [G,B,]2 | A,4 A,2 | (A,2 G,2) [F,A,]2 | %5
 ([D,B,]3 [B,,D]) ([C,E][D,D]) | (C2 D2) [E,B,]2 | [A,,A,]4 [E,G,]2 | G,2 F,2 [E,G,]2 | %9
 [A,,A,]4 A,2 | (E2 D2) [A,C]2 | [G,B,]4 A,2 | ([D,B,]3 [B,,D]) ([C,E][D,D]) | (C2 E2) [E,B,]2 | %14
 [A,,A,]4 |] %15
V:4
 A,2 | x4 F,2 | x6 | A,4 A,2 | E,4 x2 | x6 | E,4 x2 | x6 | E,4 x2 | x4 A,2 | A,4 x2 | x4 A,2 | x6 | %13
 E,4 x2 | x4 |] %15

